X: 772
T: The Penniless Traveller.
B:O'Neill's Music of Ireland
N:O'Neill's - 772
Z:Transcribed by Stephen Foy (shf@access.digex.net)
Z:abc 1.6
M:6/8
R:Jig
K:C
G|Gcc cBA|G>AG GEF|Gcc c2 d|ecA A2 G|\
Gcc cA|G>AG GEF|Gcc Bdf|ecc c2:|
||(e/f/)|gec cBc|AFF F2 (f/g/)|afd dec|BGG G2 G|\
Gcc cBA|G>AG GEF|Gcc Bdf|ecc c2:|


